X:1
T:Title
%%score ( 1 2 ) { ( 3 5 ) | 4 }
L:1/8
M:4/4
K:G
V:1 treble nm="Grand Piano"
V:2 treble 
V:3 bass nm="Grand Piano"
V:5 bass 
V:4 bass 
V:1
 z4 z2[Q:1/4=92] DD | [DG]2 [DG]2 GF/G/ AG | [DF]4 z2 [DF][DG] | [DA]2 [DA]2 AG/A/ BA | %4
w: Al les~|Le ben~ str�mt~ * * * aus~|Dir,~ al les~|Le ben~ str�mt~ * * * aus~|
 [DG]4 z2 [GB][Ac] | [Bd]2 [Bd]2 [Bd]2 [Ac][GB] | [Ge]2 [Gd]2 z2 [Gd][Gd] | [Fc]2 [FA]2 [GB]GdB | %8
w: Dir,~ und~ durch|wallt~ in~ tau * send~|B� chen,~ und~ durch|wallt~ in~ tau * send~ *|
 [GB]2 [FA]2 z2 [FA]>[FA] | [FA][EG] [DF]2 z2 [Fc]>[Fc] | [Fc][GB] [FA]2 z4 | %11
w: B� chen,~ al le~|Wel * ten;~ al le~|spre * chen:~|
 [DG]2 [DG]2 [D=F]2 [DF]2 | [B,=F]2 [DF]2 [CE]4 | [Ge]2 [Ge]2 [Gd]2 [Ac]2 | %14
w: Dei ner~ H�n de~|Werk~ sind~ wir,~|Dei ner~ H�n de~|
 [GB]2 [FA]2 [DG]2 [Fd][Fd] | d4- [Gd]2- [G-d]/G/[Gd] | [Fd]3 [Fc] [GB]2 z2 | %17
w: Werk~ sind~ wir,~ Dei ner~|H�n * * * de~|Werk~ sind~ wir,~|
 [Ge]2 [Ge]2 [Gd]2 ec | [GB]2 [FA]2 [DG]4- | [DG]2 z2 z4 |] %20
w: Dei ner~ H�n * de~|Werk~ sind~ wir!~||
V:2
 x8 | z4 D2 D2 | x8 | z4 D2 D2 | x8 | x8 | x8 | z4 z2 G2 | x8 | x8 | x8 | x8 | x8 | x8 | x8 | %15
 F4 z4 | x8 | z4 z2 G2 | x8 | x8 |] %20
V:3
 z4 z2 D,D, | B,2 B,2 B,A,/B,/ CB, | A,4 z2[K:treble] A,B, | C2 C2 CB,/C/ DC | B,4 z4 | z4 z2 DD | %6
 CCB,[K:bass]B, B,B,B,B, | A,2[K:treble] D2 DB,B,D | D2 D2 z4 | z2[K:bass] A,>B, C2 A,2 | %10
 z2 A,>G, z C,G,A, | B,2 B,2 G,2 G,2 | G,2 G,2 G,4 | C2 C2 B,2 E2 | D2 C2[K:bass] B,2 A,A, | %15
 A,4 B,2 z B, | A,3 D D2 z2 | z4 z2 C2 | D2 C2 B,4- | B,2 z2 z4 |] %20
V:4
 z8 | G,2 G,2 D,2 D,2 | D,4 z2 D,D, | F,2 F,2 D,2 F,2 | G,4 z4 | z4 z2 G,G, | G,G,G,G, G,G,G,G, | %7
 D,2 D,2 G,2 G,2 | D,2 D,2 z4 | z2 D,>D, D,2 D,2 | z2 D,>E, .D,2 B,,A,, | G,,2 G,,2 B,,2 B,,2 | %12
 G,,2 B,,2 C,4 | C,2 C,2 G,2 C,2 | D,2 D,2 G,2 D,D, | D,E,F,D, G,A,B,G, | D,E,F,D, G,2 z2 | %17
 C,2 C,2 D,2 .C,2 | D,2 D,2 [G,,G,]4- | [G,,G,]2 z2 z4 |] %20
V:5
 x8 | x8 | x6[K:treble] x2 | x8 | x8 | x8 | x3[K:bass] x5 | x2[K:treble] x6 | x8 | x2[K:bass] x6 | %10
 z4 F,2 z2 | x8 | x8 | x8 | x4[K:bass] x4 | x8 | x8 | C2 C2 B,2 z E, | x8 | x8 |] %20

